public/icon.svg

<svg fill="none" height="256" viewBox="0 0 256 256" width="256" xmlns="http://www.w3.org/2000/svg"><path d="m0 0h256v256h-256z" fill="#ffefe1"/><path d="m171.949 48.0344c3.961 6.497 2.291 14.3006.599 21.4286-.585 2.2447-1.185 4.4857-1.799 6.723-.602 2.2637-1.202 4.528-1.8 6.7929-.268.9855-.536 1.971-.812 2.9863-.686 2.4509-.686 2.4509-.587 5.0163 1.277-.6776 1.277-.6776 2.58-1.369 3.882-2.0556 7.769-4.1022 11.656-6.1487 2.009-1.0664 2.009-1.0664 4.058-2.1544 1.955-1.0268 1.955-1.0268 3.949-2.0744 1.193-.6299 2.386-1.2598 3.615-1.9088 6.633-3.1558 11.698-5.2292 18.928-2.9797 2.48 2.0794 2.48 2.0794 3.839 5.1185-.271 7.7207-.271 7.7207-2.914 10.961-2.502 2.0833-4.963 3.4416-7.882 4.8842-1.134.5623-2.268 1.1245-3.436 1.7039-1.215.5956-2.43 1.1913-3.682 1.805-1.875.9505-1.875.9505-3.787 1.9199-6.072 3.049-12.068 5.87-18.477 8.137-12.703 4.636-12.703 4.636-20.828 14.951-2.315 5.729-4.052 11.604-5.755 17.539-1.594 5.058-3.824 9.694-6.257 14.396-.427.831-.855 1.662-1.296 2.518-6.72 12.801-14.692 24.188-24.216 35.071-.879 1.017-1.758 2.035-2.664 3.084-9.861 10.666-24.0035 20.128-38.7586 21.513-7.1499-.554-11.3942-2.854-16.515-7.862-8.5627-10.33-10.92-25.41-9.882-38.489 2.7184-15.174 11.5219-24.163 23.7378-32.93 11.8865-7.991 24.7794-14.641 37.6838-20.814-3.323-6.645-7.523-11.943-12.3464-17.579-5.2854-6.2493-10.1611-12.7744-15.0055-19.3695-.761-1.0346-1.5221-2.0693-2.3062-3.1353-2.0731-2.8359-4.1278-5.6837-6.1712-8.5411-.5423-.75-1.0846-1.4999-1.6433-2.2725-3.5177-5.0202-4.3882-8.2-3.4752-14.3625 1.9794-2.8492 1.9794-2.8492 5.1185-5.1185 3.5057-.1761 6.4614-.0538 9.917.3199 10.8399.8584 21.6413 1.1685 32.5103 1.1917 1.757.0052 3.513.0159 5.269.0328 11.015.1033 21.538-.5643 32.393-2.2726 11.742-1.4833 11.742-1.4833 16.442 1.288zm-26.462 19.2692c-9.732 1.0238-19.51.7805-29.282.7248-1.976-.0064-3.952-.0123-5.928-.0175-4.795-.0139-9.59-.036-14.3855-.0625 4.9525 8.6303 9.9645 17.1465 15.5955 25.3524 4.045 5.9194 7.786 11.8882 11.276 18.1542 3.774-1.54 7.526-3.125 11.277-4.718 1.066-.435 2.133-.87 3.232-1.317 4.343-1.867 7.748-3.333 10.924-6.8858 2.218-5.7235 3.901-11.5516 5.518-17.4697.523-1.8631.523-1.8631 1.057-3.7639 1.741-5.2366 1.741-5.2366 2.542-10.6318-4.015-.0557-7.847.1219-11.826.6348zm-24.452 65.7954c-1.906.858-3.814 1.71-5.724 2.557-10.319 4.574-20.3667 9.369-30.0613 15.167-.7833.469-1.5666.937-2.3737 1.42-7.3685 4.529-14.4923 9.782-17.6953 18.075-1.2048 11.123-.2482 20.818 5.1185 30.71 1.42 1.673 1.42 1.673 4.9585 1.84 14.0961-.457 24.9353-12.669 33.9643-22.248 12.917-14.278 27.638-35.641 30.176-55.089-5.53 0-13.308 5.288-18.363 7.568z" fill="#ff9d47"/><g fill="#0a0a0a"><path d="m171.145 47.0249c.569.3273 1.053.7949 1.359 1.3764 3.323 6.3108 1.763 13.6814.146 20.4934-.586 2.2447-1.085 4.6183-1.698 6.8556-.602 2.2637-1.163 4.3745-1.761 6.6394-.268.9855-.557 2.1654-.833 3.1808-.275.9813-.512 1.8707-.691 2.749-.385 1.8913.509 1.8499 2.213.9452 3.883-2.0556 7.79-4.1916 11.677-6.2381 2.009-1.0664 2.009-1.0664 4.059-2.1544 1.954-1.0268 1.954-1.0268 3.948-2.0744 1.193-.6299 2.386-1.2598 3.615-1.9088 6.394-3.0423 11.332-5.0787 18.157-3.2058.511.1403.982.4019 1.389.7416 1.75 1.4606 2.402 2.0295 3.396 4.0842.266.5494.38 1.1644.356 1.7742-.261 6.5875-.673 7.1123-2.99 9.9468-.162.1987-.343.3823-.542.5441-2.404 1.9527-4.828 3.3388-7.632 4.7241-1.133.5623-2.215 1.0067-3.383 1.586-1.215.5956-2.501 1.1837-3.753 1.7974-1.875.9504-1.975.9937-3.888 1.9634-6.071 3.049-11.872 5.798-18.281 8.065-12.513 4.567-12.478 4.609-20.24 14.468-.235.298-.432.634-.572.985-2.216 5.55-4.005 11.059-5.655 16.811-1.594 5.058-3.684 9.513-6.117 14.215-.427.831-1.024 2.04-1.465 2.896-6.72 12.801-13.919 23.541-23.443 34.424-.879 1.018-2.113 2.355-3.019 3.404-9.786 10.584-24.6819 20.848-39.3277 22.359-.227.024-.457.026-.6842.005-6.9381-.632-10.9683-3.901-16.0065-8.829-8.5627-10.329-10.92-25.409-9.882-38.488 2.7185-15.174 11.5219-24.163 23.7379-32.93 10.7603-7.234 22.3455-13.369 34.0175-19.046 2.011-.978 2.856-3.415 1.724-5.344-2.963-5.05-6.477-9.415-10.4042-14.0029-5.2853-6.2496-10.161-12.7747-15.0055-19.3698-.761-1.0346-1.522-2.0693-2.3061-3.1353-2.0732-2.8359-4.1279-5.6838-6.1713-8.5412-.5423-.7499-1.0845-1.4998-1.6433-2.2724-3.3363-4.7613-4.2913-7.8672-3.602-13.4324.0757-.6115.3092-1.1952.663-1.6997 1.2872-1.8354 1.6646-2.2229 3.6218-3.6524.6242-.4559 1.3716-.7206 2.1442-.7453 3.0052-.096 5.6733.0377 8.7333.3687 10.84.8584 21.6411 1.1685 32.5101 1.1917 1.757.0052 3.513.0159 5.27.0328 11.015.1033 21.537-.5643 32.393-2.2726 10.978-1.3869 11.945-1.5358 15.866.7157zm-23.543 3.8513c-9.476 1.6426-18.837 1.6121-28.426 1.5196-1.815-.0071-3.63-.0135-5.444-.0194-10.756-.0575-21.4897-.3101-32.2081-1.2693-1.5498-.1252-3.1048-.1822-4.66-.2102-1.0715-.0192-2.1017.4061-2.8595 1.1638-.0275.0276-.055.0551-.0826.0826-.8206.8207-1.2647 1.96-1.0799 3.1058 1.9381 12.02 14.1777 23.776 21.5062 32.9759 4.3837 5.5041 8.6969 11.0607 12.9909 16.635.728.936 1.456 1.871 2.205 2.835 1.012 1.316 1.012 1.316 2.044 2.658.601.778 1.201 1.555 1.82 2.356.892 1.322 1.235 1.83 1.665 2.92.683 1.731-.177 3.682-1.844 4.508-33.834 15.977-36.0933 13.941-57.9358 43.263-.2701.363-.4885.782-.6146 1.216-3.5442 12.202-1.0267 26.517 4.0503 37.98 2.8562 4.892 5.6328 8.596 10.9809 10.656.2383.092.4894.157.7421.193 10.9735 1.604 20.0072-3.057 29.0497-9.015 5.6224-4.174 10.5444-9.005 15.3554-14.076 1.09-1.143 2.181-2.286 3.304-3.464 16.17-18.207 25.726-39.924 33.96-62.593.371-1.004.742-2.008 1.124-3.042.329-1.029.657-2.058.994-3.113.06-.188.134-.373.223-.549 1.747-3.456 3.132-4.188 6.751-5.8 1.1-.505 2.2-1.009 3.334-1.529 1.179-.517 2.359-1.033 3.574-1.565 2.445-1.117 4.889-2.235 7.333-3.354 1.218-.551 2.436-1.102 3.69-1.669 5.041-2.305 10.011-4.737 14.969-7.2135.807-.3956 1.614-.7911 2.445-1.1987 7.768-3.8455 8.275-4.0965 14.221-8.7878.849-.67 1.4-1.6567 1.493-2.7342.115-1.3286.099-1.9419-.049-3.5243-.072-.7754-.372-1.5185-.869-2.1175-1.751-2.1066-2.185-2.0661-5.979-1.7114-8.618 1.3236-16.173 6.2091-23.738 10.3169-2.354 1.2598-4.711 2.5151-7.069 3.7682-2.124 1.1321-4.243 2.2756-6.361 3.4196-2.563 1.3166-3.219 1.6536-4.969 2.267-.974.3415-1.92-.5719-1.63-1.5628 1.029-3.5358 2.051-7.0735 3.074-10.6112.355-1.2174.711-2.4347 1.077-3.6889 2.312-8.0222 4.31-15.6576 4.281-24.0628.004-.9847.007-1.9695.01-2.9841.065-1.7444.083-2.218-.507-2.8335-.563-.5872-1.376-.8589-2.188-.9084-1.635-.0996-3.275-.1402-4.912-.1519-1.117-.0181-2.234-.0363-3.384-.055-3.963.2578-7.565.8379-11.457 1.5745z"/><path d="m139.851 120.575c2.374-.242 4.225 2.531 3.756 4.871-.918 4.579-2.4 8.337-4.556 13.084-.456 1.01-.912 2.02-1.382 3.061-6.625 14.425-14.122 27.915-24.77 39.806-.548.624-1.095 1.247-1.659 1.89-9.311 10.485-20.7607 21.284-35.3775 22.756-.2567.026-.5184.023-.775-.004-2.9613-.314-3.243-.41-6.0366-2.353-.356-.248-.6727-.553-.9242-.907-6.7419-9.475-7.9112-21.086-6.465-32.494.0341-.269.0967-.535.1896-.79 4.8291-13.247 19.2961-21.565 31.2133-27.526 1.2508-.639 2.5015-1.278 3.7901-1.936 9.8063-4.939 19.7643-9.527 29.8003-13.979 1.378-.612 2.756-1.224 4.176-1.854 1.281-.556 2.561-1.112 3.881-1.685 1.133-.492 2.266-.984 3.433-1.491.762-.275 1.283-.406 1.706-.449zm-18.596 12.836c-1.906.858-3.208 1.713-5.118 2.56-10.319 4.574-20.3767 8.916-30.0714 14.715-.7833.468-2.3919 1.437-3.199 1.92-7.2224 4.439-13.8433 8.805-17.1191 16.786-.1322.322-.2142.665-.2497 1.011-1.1046 10.769-.1339 20.21 4.9765 29.821.1295.244.2869.474.4668.684 1.1664 1.357 1.3891 1.367 4.6888 1.523 14.096-.457 24.9361-12.669 33.9651-22.249 12.075-13.348 25.584-39.261 29.01-51.989.401-1.491-.419-2.549-1.87-2.022-3.983 1.446-11.633 5.505-15.48 7.24z"/><path d="m155.901 62.4237c2.352-.0782 4.161 2.0023 3.89 4.3398-3.342 28.859-5.512 28.7059-12.302 37.3545-.287.365-.637.687-1.031.934-6.739 4.224-13.824 7.818-21.598 9.58-.683.155-1.4.112-2.06-.124-3.4-1.216-3.811-1.964-5.829-5.419-.557-.938-1.115-1.876-1.689-2.842-.589-1.012-1.178-2.024-1.785-3.067-1.249-2.099-2.502-4.1968-3.758-6.2926-.636-1.0596-1.271-2.1192-1.925-3.2109-2.888-4.7258-5.939-9.3352-9.0322-13.929-.5337-.7928-1.0674-1.5855-1.6173-2.4024-1.3508-2.0002-2.7056-3.9978-4.061-5.995-1.2173-1.826-1.8556-2.7834-2.1903-3.6986-.7611-2.0813 1.4328-3.9711 3.6489-3.9612.179.0008.3585.0016.5387.0024 5.6062.0232 11.2132.0379 16.8202.05 2.421.0064 4.842.0151 7.264.0262 3.491.0156 6.982.0228 10.473.0284 1.073.0067 2.146.0133 3.252.0201 7.95.0007 15.243-1.136 22.991-1.3937zm-10.973 5.0875c-9.732 1.0238-19.019.6955-28.791.6399-1.976-.0065-3.783.0052-5.759 0-2.531-.0074-5.153-.1778-7.771-.3411-3.0783-.1919-5.0196 3.0558-3.4623 5.7182 3.8423 6.5686 7.7953 13.0432 12.1133 19.3354 3.377 4.9416 6.542 9.9174 9.526 15.0724 1.014 1.751 3.16 2.508 5.028 1.732 2.672-1.11 5.336-2.237 7.999-3.368 1.067-.435 2.133-.87 3.232-1.318 4.118-1.769 7.394-3.18 10.43-6.3506.332-.3473.584-.769.76-1.2164 1.916-4.8732 1.544-3.1211 3.093-8.7901.523-1.8632 2.683-9.8607 3.217-11.7615 1.278-3.8469 1.705-4.6719 1.841-6.8681.114-1.8319-1.209-3.4054-3.044-3.36-2.552.063-5.712.5279-8.412.8759z"/></g></svg>

<svg width="256" height="256" viewBox="0 0 256 256" fill="none" xmlns="http://www.w3.org/2000/svg">
<rect width="256" height="256" fill="#FFEFE1"/>
<path d="M171.949 48.0344C175.91 54.5314 174.24 62.335 172.548 69.463C171.963 71.7077 171.363 73.9487 170.749 76.186C170.147 78.4497 169.547 80.714 168.949 82.9789C168.681 83.9644 168.413 84.9499 168.137 85.9652C167.451 88.4161 167.451 88.4161 167.55 90.9815C168.827 90.3039 168.827 90.3039 170.13 89.6125C174.012 87.5569 177.899 85.5103 181.786 83.4638C183.795 82.3974 183.795 82.3974 185.844 81.3094C187.799 80.2826 187.799 80.2826 189.793 79.235C190.986 78.6051 192.179 77.9752 193.408 77.3262C200.041 74.1704 205.106 72.097 212.336 74.3465C214.816 76.4259 214.816 76.4259 216.175 79.465C215.904 87.1857 215.904 87.1857 213.261 90.426C210.759 92.5093 208.298 93.8676 205.379 95.3102C204.245 95.8725 203.111 96.4347 201.943 97.0141C200.728 97.6097 199.513 98.2054 198.261 98.8191C196.386 99.7696 196.386 99.7696 194.474 100.739C188.402 103.788 182.406 106.609 175.997 108.876C163.294 113.512 163.294 113.512 155.169 123.827C152.854 129.556 151.117 135.431 149.414 141.366C147.82 146.424 145.59 151.06 143.157 155.762C142.73 156.593 142.302 157.424 141.861 158.28C135.141 171.081 127.169 182.468 117.645 193.351C116.766 194.368 115.887 195.386 114.981 196.435C105.12 207.101 90.9775 216.563 76.2224 217.948C69.0725 217.394 64.8282 215.094 59.7074 210.086C51.1447 199.756 48.7874 184.676 49.8254 171.597C52.5438 156.423 61.3473 147.434 73.5632 138.667C85.4497 130.676 98.3426 124.026 111.247 117.853C107.924 111.208 103.724 105.91 98.9006 100.274C93.6152 94.0247 88.7395 87.4996 83.8951 80.9045C83.1341 79.8699 82.373 78.8352 81.5889 77.7692C79.5158 74.9333 77.4611 72.0855 75.4177 69.2281C74.8754 68.4781 74.3331 67.7282 73.7744 66.9556C70.2567 61.9354 69.3862 58.7556 70.2992 52.5931C72.2786 49.7439 72.2786 49.7439 75.4177 47.4746C78.9234 47.2985 81.8791 47.4208 85.3347 47.7945C96.1746 48.6529 106.976 48.963 117.845 48.9862C119.602 48.9914 121.358 49.0021 123.114 49.019C134.129 49.1223 144.652 48.4547 155.507 46.7464C167.249 45.2631 167.249 45.2631 171.949 48.0344ZM145.487 67.3036C135.755 68.3274 125.977 68.0841 116.205 68.0284C114.229 68.022 112.253 68.0161 110.277 68.0109C105.482 67.997 100.687 67.9749 95.8915 67.9484C100.844 76.5787 105.856 85.0949 111.487 93.3008C115.532 99.2202 119.273 105.189 122.763 111.455C126.537 109.915 130.289 108.33 134.04 106.737C135.106 106.302 136.173 105.867 137.272 105.42C141.615 103.553 145.02 102.087 148.196 98.5342C150.414 92.8107 152.097 86.9826 153.714 81.0645C154.237 79.2014 154.237 79.2014 154.771 77.3006C156.512 72.064 156.512 72.064 157.313 66.6688C153.298 66.6131 149.466 66.7907 145.487 67.3036ZM121.035 133.099C119.129 133.957 117.221 134.809 115.311 135.656C104.992 140.23 94.9443 145.025 85.2497 150.823C84.4664 151.292 83.6831 151.76 82.876 152.243C75.5075 156.772 68.3837 162.025 65.1807 170.318C63.9759 181.441 64.9325 191.136 70.2992 201.028C71.7192 202.701 71.7192 202.701 75.2577 202.868C89.3538 202.411 100.193 190.199 109.222 180.62C122.139 166.342 136.86 144.979 139.398 125.531C133.868 125.531 126.09 130.819 121.035 133.099Z" fill="#FF9D47"/>
<path d="M171.145 47.0249C171.714 47.3522 172.198 47.8198 172.504 48.4013C175.827 54.7121 174.267 62.0827 172.65 68.8947C172.064 71.1394 171.565 73.513 170.952 75.7503C170.35 78.014 169.789 80.1248 169.191 82.3897C168.923 83.3752 168.634 84.5551 168.358 85.5705C168.083 86.5518 167.846 87.4412 167.667 88.3195C167.282 90.2108 168.176 90.1694 169.88 89.2647V89.2647C173.763 87.2091 177.67 85.0731 181.557 83.0266C183.566 81.9602 183.566 81.9602 185.616 80.8722C187.57 79.8454 187.57 79.8454 189.564 78.7978C190.757 78.1679 191.95 77.538 193.179 76.889C199.573 73.8467 204.511 71.8103 211.336 73.6832C211.847 73.8235 212.318 74.0851 212.725 74.4248C214.475 75.8854 215.127 76.4543 216.121 78.509C216.387 79.0584 216.501 79.6734 216.477 80.2832C216.216 86.8707 215.804 87.3955 213.487 90.23C213.325 90.4287 213.144 90.6123 212.945 90.7741C210.541 92.7268 208.117 94.1129 205.313 95.4982C204.18 96.0605 203.098 96.5049 201.93 97.0842C200.715 97.6798 199.429 98.2679 198.177 98.8816C196.302 99.832 196.202 99.8753 194.289 100.845C188.218 103.894 182.417 106.643 176.008 108.91C163.495 113.477 163.53 113.519 155.768 123.378C155.533 123.676 155.336 124.012 155.196 124.363C152.98 129.913 151.191 135.422 149.541 141.174C147.947 146.232 145.857 150.687 143.424 155.389C142.997 156.22 142.4 157.429 141.959 158.285C135.239 171.086 128.04 181.826 118.516 192.709C117.637 193.727 116.403 195.064 115.497 196.113C105.711 206.697 90.8151 216.961 76.1693 218.472C75.9423 218.496 75.7123 218.498 75.4851 218.477C68.547 217.845 64.5168 214.576 59.4786 209.648C50.9159 199.319 48.5586 184.239 49.5966 171.16C52.3151 155.986 61.1185 146.997 73.3345 138.23C84.0948 130.996 95.68 124.861 107.352 119.184C109.363 118.206 110.208 115.769 109.076 113.84C106.113 108.79 102.599 104.425 98.6718 99.8371C93.3865 93.5875 88.5108 87.0624 83.6663 80.4673C82.9053 79.4327 82.1443 78.398 81.3602 77.332C79.287 74.4961 77.2323 71.6482 75.1889 68.7908C74.6466 68.0409 74.1044 67.291 73.5456 66.5184C70.2093 61.7571 69.2543 58.6512 69.9436 53.086C70.0193 52.4745 70.2528 51.8908 70.6066 51.3863C71.8938 49.5509 72.2712 49.1634 74.2284 47.7339C74.8526 47.278 75.6 47.0133 76.3726 46.9886C79.3778 46.8926 82.0459 47.0263 85.1059 47.3573C95.9459 48.2157 106.747 48.5258 117.616 48.549C119.373 48.5542 121.129 48.5649 122.886 48.5818C133.901 48.6851 144.423 48.0175 155.279 46.3092C166.257 44.9223 167.224 44.7734 171.145 47.0249ZM147.602 50.8762C138.126 52.5188 128.765 52.4883 119.176 52.3958C117.361 52.3887 115.546 52.3823 113.732 52.3764C102.976 52.3189 92.2423 52.0663 81.5239 51.1071C79.9741 50.9819 78.4191 50.9249 76.8639 50.8969C75.7924 50.8777 74.7622 51.303 74.0044 52.0607C73.9769 52.0883 73.9494 52.1158 73.9218 52.1433C73.1012 52.964 72.6571 54.1033 72.8419 55.2491C74.78 67.2691 87.0196 79.0251 94.3481 88.225C98.7318 93.7291 103.045 99.2857 107.339 104.86C108.067 105.796 108.795 106.731 109.544 107.695C110.556 109.011 110.556 109.011 111.588 110.353C112.189 111.131 112.789 111.908 113.408 112.709C114.3 114.031 114.643 114.539 115.073 115.629C115.756 117.36 114.896 119.311 113.229 120.137V120.137C79.395 136.114 77.1357 134.078 55.2932 163.4C55.0231 163.763 54.8047 164.182 54.6786 164.616C51.1344 176.818 53.6519 191.133 58.7289 202.596C61.5851 207.488 64.3617 211.192 69.7098 213.252C69.9481 213.344 70.1992 213.409 70.4519 213.445C81.4254 215.049 90.4591 210.388 99.5016 204.43C105.124 200.256 110.046 195.425 114.857 190.354C115.947 189.211 117.038 188.068 118.161 186.89C134.331 168.683 143.887 146.966 152.121 124.297C152.492 123.293 152.863 122.289 153.245 121.255C153.574 120.226 153.902 119.197 154.239 118.142C154.299 117.954 154.373 117.769 154.462 117.593C156.209 114.137 157.594 113.405 161.213 111.793C162.313 111.288 163.413 110.784 164.547 110.264C165.726 109.747 166.906 109.231 168.121 108.699C170.566 107.582 173.01 106.464 175.454 105.345C176.672 104.794 177.89 104.243 179.144 103.676C184.185 101.371 189.155 98.939 194.113 96.4625C194.92 96.0669 195.727 95.6714 196.558 95.2638C204.326 91.4183 204.833 91.1673 210.779 86.476C211.628 85.806 212.179 84.8193 212.272 83.7418C212.387 82.4132 212.371 81.7999 212.223 80.2175C212.151 79.4421 211.851 78.699 211.354 78.1C209.603 75.9934 209.169 76.0339 205.375 76.3886C196.757 77.7122 189.202 82.5977 181.637 86.7055C179.283 87.9653 176.926 89.2206 174.568 90.4737C172.444 91.6058 170.325 92.7493 168.207 93.8933C165.644 95.2099 164.988 95.5469 163.238 96.1603C162.264 96.5018 161.318 95.5884 161.608 94.5975V94.5975C162.637 91.0617 163.659 87.524 164.682 83.9863C165.037 82.7689 165.393 81.5516 165.759 80.2974C168.071 72.2752 170.069 64.6398 170.04 56.2346C170.044 55.2499 170.047 54.2651 170.05 53.2505C170.115 51.5061 170.133 51.0325 169.543 50.417C168.98 49.8298 168.167 49.5581 167.355 49.5086C165.72 49.409 164.08 49.3684 162.443 49.3567C161.326 49.3386 160.209 49.3204 159.059 49.3017C155.096 49.5595 151.494 50.1396 147.602 50.8762Z" fill="#0A0A0A"/>
<path d="M139.851 120.575C142.225 120.333 144.076 123.106 143.607 125.446C142.689 130.025 141.207 133.783 139.051 138.53C138.595 139.54 138.139 140.55 137.669 141.591C131.044 156.016 123.547 169.506 112.899 181.397C112.351 182.021 111.804 182.644 111.24 183.287C101.929 193.772 90.4793 204.571 75.8625 206.043C75.6058 206.069 75.3441 206.066 75.0875 206.039C72.1262 205.725 71.8445 205.629 69.0509 203.686C68.6949 203.438 68.3782 203.133 68.1267 202.779C61.3848 193.304 60.2155 181.693 61.6617 170.285C61.6958 170.016 61.7584 169.75 61.8513 169.495C66.6804 156.248 81.1474 147.93 93.0646 141.969C94.3154 141.33 95.5661 140.691 96.8547 140.033C106.661 135.094 116.619 130.506 126.655 126.054C128.033 125.442 129.411 124.83 130.831 124.2C132.112 123.644 133.392 123.088 134.712 122.515C135.845 122.023 136.978 121.531 138.145 121.024C138.907 120.749 139.428 120.618 139.851 120.575ZM121.255 133.411C119.349 134.269 118.047 135.124 116.137 135.971C105.818 140.545 95.7603 144.887 86.0656 150.686C85.2823 151.154 83.6737 152.123 82.8666 152.606C75.6442 157.045 69.0233 161.411 65.7475 169.392C65.6153 169.714 65.5333 170.057 65.4978 170.403C64.3932 181.172 65.3639 190.613 70.4743 200.224C70.6038 200.468 70.7612 200.698 70.9411 200.908C72.1075 202.265 72.3302 202.275 75.6299 202.431C89.7259 201.974 100.566 189.762 109.595 180.182C121.67 166.834 135.179 140.921 138.605 128.193C139.006 126.702 138.186 125.644 136.735 126.171C132.752 127.617 125.102 131.676 121.255 133.411Z" fill="#0A0A0A"/>
<path d="M155.901 62.4237C158.253 62.3455 160.062 64.426 159.791 66.7635C156.449 95.6225 154.279 95.4694 147.489 104.118C147.202 104.483 146.852 104.805 146.458 105.052C139.719 109.276 132.634 112.87 124.86 114.632C124.177 114.787 123.46 114.744 122.8 114.508C119.4 113.292 118.989 112.544 116.971 109.089C116.414 108.151 115.856 107.213 115.282 106.247C114.693 105.235 114.104 104.223 113.497 103.18C112.248 101.081 110.995 98.9832 109.739 96.8874C109.103 95.8278 108.468 94.7682 107.814 93.6765C104.926 88.9507 101.875 84.3413 98.7818 79.7475C98.2481 78.9547 97.7144 78.162 97.1645 77.3451C95.8137 75.3449 94.4589 73.3473 93.1035 71.3501C91.8862 69.5241 91.2479 68.5667 90.9132 67.6515C90.1521 65.5702 92.346 63.6804 94.5621 63.6903C94.7411 63.6911 94.9206 63.6919 95.1008 63.6927C100.707 63.7159 106.314 63.7306 111.921 63.7427C114.342 63.7491 116.763 63.7578 119.185 63.7689C122.676 63.7845 126.167 63.7917 129.658 63.7973C130.731 63.804 131.804 63.8106 132.91 63.8174C140.86 63.8181 148.153 62.6814 155.901 62.4237ZM144.928 67.5112C135.196 68.535 125.909 68.2067 116.137 68.1511C114.161 68.1446 112.354 68.1563 110.378 68.1511C107.847 68.1437 105.225 67.9733 102.607 67.81C99.5287 67.6181 97.5874 70.8658 99.1447 73.5282C102.987 80.0968 106.94 86.5714 111.258 92.8636C114.635 97.8052 117.8 102.781 120.784 107.936C121.798 109.687 123.944 110.444 125.812 109.668C128.484 108.558 131.148 107.431 133.811 106.3C134.878 105.865 135.944 105.43 137.043 104.982C141.161 103.213 144.437 101.802 147.473 98.6314C147.805 98.2841 148.057 97.8624 148.233 97.415C150.149 92.5418 149.777 94.2939 151.326 88.6249C151.849 86.7617 154.009 78.7642 154.543 76.8634C155.821 73.0165 156.248 72.1915 156.384 69.9953C156.498 68.1634 155.175 66.5899 153.34 66.6353C150.788 66.6983 147.628 67.1632 144.928 67.5112Z" fill="#0A0A0A"/>
</svg>
